icons/question.svg

<?xml version="1.0" encoding="iso-8859-1"?>
<!-- Generator: Adobe Illustrator 19.0.0, SVG Export Plug-In . SVG Version: 6.00 Build 0)  -->
<svg version="1.1" id="Layer_1" xmlns="http://www.w3.org/2000/svg" xmlns:xlink="http://www.w3.org/1999/xlink" x="0px" y="0px"
	 viewBox="0 0 512 512" style="enable-background:new 0 0 512 512;" xml:space="preserve">
<g>
	<g>
		<path d="M256,0C114.509,0,0,114.496,0,256c0,141.489,114.496,256,256,256c141.491,0,256-114.496,256-256
			C512,114.509,397.504,0,256,0z M248.425,375.819c-14.49,0-25.61-12.131-25.61-25.948c0-14.153,11.457-25.946,25.61-25.946
			c14.154,0,25.946,11.794,25.946,25.947C274.371,363.687,262.914,375.819,248.425,375.819z M286.839,244.736
			c-18.533,14.49-18.871,24.599-18.871,42.121c0,6.404-3.37,13.817-19.881,13.817c-13.817,0-18.533-5.055-18.533-22.577
			c0-28.98,12.805-42.796,22.577-51.22c11.12-9.436,29.991-19.881,29.991-38.077c0-15.502-13.479-22.915-30.328-22.915
			c-34.371,0-26.957,25.948-45.155,25.948c-9.098,0-20.218-6.067-20.218-19.208c0-18.196,20.892-45.155,66.384-45.155
			c43.132,0,71.775,23.926,71.775,55.601S295.937,237.66,286.839,244.736z"/>
	</g>
</g>
<g>
</g>
<g>
</g>
<g>
</g>
<g>
</g>
<g>
</g>
<g>
</g>
<g>
</g>
<g>
</g>
<g>
</g>
<g>
</g>
<g>
</g>
<g>
</g>
<g>
</g>
<g>
</g>
<g>
</g>
</svg>

<?xml version="1.0" encoding="UTF-8" standalone="no"?>
<!DOCTYPE svg PUBLIC "-//W3C//DTD SVG 1.1//EN" "http://www.w3.org/Graphics/SVG/1.1/DTD/svg11.dtd">
<svg width="100%" height="100%" viewBox="0 0 512 512" version="1.1" xmlns="http://www.w3.org/2000/svg" xmlns:xlink="http://www.w3.org/1999/xlink" xml:space="preserve" xmlns:serif="http://www.serif.com/" style="fill-rule:evenodd;clip-rule:evenodd;stroke-linejoin:round;stroke-miterlimit:2;">
    <g>
        <g transform="matrix(1,0,0,1,-24,0)">
            <circle cx="280" cy="250" r="170" style="fill:rgb(235,235,235);"/>
        </g>
        <g>
            <path d="M256,0C114.509,0 0,114.496 0,256C0,397.489 114.496,512 256,512C397.491,512 512,397.504 512,256C512,114.509 397.504,0 256,0ZM248.425,375.819C233.935,375.819 222.815,363.688 222.815,349.871C222.815,335.718 234.272,323.925 248.425,323.925C262.579,323.925 274.371,335.719 274.371,349.872C274.371,363.687 262.914,375.819 248.425,375.819ZM286.839,244.736C268.306,259.226 267.968,269.335 267.968,286.857C267.968,293.261 264.598,300.674 248.087,300.674C234.27,300.674 229.554,295.619 229.554,278.097C229.554,249.117 242.359,235.301 252.131,226.877C263.251,217.441 282.122,206.996 282.122,188.8C282.122,173.298 268.643,165.885 251.794,165.885C217.423,165.885 224.837,191.833 206.639,191.833C197.541,191.833 186.421,185.766 186.421,172.625C186.421,154.429 207.313,127.47 252.805,127.47C295.937,127.47 324.58,151.396 324.58,183.071C324.58,214.746 295.937,237.66 286.839,244.736Z" style="fill-rule:nonzero;"/>
        </g>
    </g>
</svg>
